X:2348
T:Buttered Peas
S:Geoff Bowen, F+J, from Peter Beresford, Wharfedale
R:Other
O:England
M:2/2
A:Yorkshire
K:D
F2 [A2F2] [A2F2] GF|G2G2G2 FE|D4 DEFG|A2A2A4|\
[A4F4][A2F2]ED|G2A2 B4|A2d2c2Bc|d2d2 d4:|*
|:A2d2 dcBA|G2G2 G3F|E2e2 edcB|A2A2 A2Bc|\
d3d d2F2|G2A2 B4|A2d2 c2Bc|d2d2 d4:|


